X: 33816
T: Ready For The Storm
R: reel
M: 4/4
K: Aminor
||"Am" ABcA dcBc|"G" ABcA dcBc|"F" ABcA dcBc|"G" ABcA dcBG||
|:"Am" c3 B A2 G2|"G" A2 G A3 AB|"F" c3 B A2 G2|"G" A2 G A3 AB|
"Am" c3 B A2 G2|"G" A2 G A3 AB|"F" c3 B B2 G2|"G" c B-B4 E2:|
|:"Am" A4 e4|"F" d c3 B2 A2|"Em"G8|"G" c2 B2 B2 G2:|"Am" A8||

